X:1
T:He Died for Thee
T:William James Kirkpatrick
T:He Died for Thee
T:Public Domain
T:Public Domain
T:Public Domain
C:William James Kirkpatrick
Z:Public Domain
%%score ( 1 2 ) ( 3 4 )
L:1/8
M:9/8
K:A
V:1 treble 
V:2 treble 
V:3 bass 
V:4 bass 
V:1
 [CE](EF) [CE] | [CA]3- [CA]2 E [EG]2 [DF] | [DF]3- [DF]2 [DF] (FG)[DF] | %3
w: 1.~The Son * of|was * cru- ci- fied,|on * the cross * the|
w: 2.~He gave * His|to * res- cue thee,|He * would now * thy|
w: 3.~Yes, come * to|who * died for thee,|let * Him now * thy|
w: 4.~He died * for|O * shall it be,|came * and died * in|
 [^DB]3- [DB]2 [DF] [DG]2 [DA] | [=DB]3- [DB]2 [DE] (EF)[DE] | [Ec]3- [Ec]2 [EA] (AB)[Ac] | %6
w: ior * died; On Cal-|va- * ry His * life|gave, * That He * thy|
w: ior * be; Give Him|thy * heart, and * thou|know * The joy * of|
w: ior * be; Re- ceive|Him * now, and * thou|find * The chains * of|
w: for * thee? Nay, ra-|ther, * come to * Him|day * And let * Him|
 [Ad]3- [Ad]2 F (AG)[=B,F] | [CE]3- [CE]2 [EA] (GF)[DE] | [CA]3- [CA]2 || %9
w: cious * soul might * save.|||
w: en * here be- * low.|for * thee, He * died|thee, *|
w: no * long- er * bind.|||
w: thy * sins a- * way.|||
[M:12/8]"^Refrain" E(EC) E | (z2 C C2 C C2) G (FG)A | (z2 C C2 C [CE]2) A (AG)A | %12
w: |||
w: Up- on * the|* * * * cross He * died|* * * * thee; O * come|
w: |||
w: |||
 (z2 D D2 D [DB]2) [EB] (BA)[EB] | [Ec]8 c (c^B)c | (z2 E E2 A A2) [Ec] (cB)[EA] | %15
w: |||
w: * * * * Him, O * come|Let Je- sus * bear|* * * * thy sins * a-|
w: |||
w: |||
 [DF]8 [DB] ([FA][EG])[DF] | [CE]8 E [^DF]2 [=DG] | [CA]8 |] %18
w: |||
w: |||
w: |||
w: |||
V:2
 x C2 x | x5 E x3 | x6 D2 x | x9 | x6 D2 x | x6 E2 x | x5 F ^B,2 x | x6 D2 x | x5 ||[M:12/8] x4 | %10
w: God|Up-|Sav-||He|pre-|||||
w: life|And|Sav-||shalt|Heav-|He died|for|||
w: Him|And|Sav-||shalt|sin|||||
w: thee!|He|vain||to-|wash|||||
 A8 x4 | E8 x4 | B8 E2 x2 | x12 | e8 E2 x2 | x12 | x8 E x3 | x8 |] %18
w: ||||||||
w: for|to|to- day,||way. *||||
w: ||||||||
w: ||||||||
V:3
 [A,,A,] [A,,A,]2 [A,,A,] | [A,,E,]3- [A,,E,]2 [C,A,] [D,A,]2 [D,A,] | %2
w: ~ ~ ~|~ * ~ ~ ~|
 [D,A,]3- [D,A,]2 [D,A,] (A,B,)[D,F,] | [B,,F,]3- [B,,F,]2 [B,,B,] [B,,B,]2 [B,,A,] | %4
w: ~ * ~ ~ * ~|~ * ~ ~ ~|
 [E,G,]3- [E,G,]2 [E,G,] [E,G,]2 [E,G,] | [A,,A,]3- [A,,A,]2 [A,C] (CD)[A,E] | %6
w: ~ * ~ ~ ~|~ * ~ ~ * ~|
 [D,F]3- [D,F]2 [D,A,] [^D,A,]2 [D,A,] | [E,A,]3- [E,A,]2 [E,C] (B,A,)[E,G,] | %8
w: ~ * ~ ~ ~|~ * ~ ~ * He|
 [A,,A,]3- [A,,A,]2 ||[M:12/8] z4 | z2 [A,,E,] [A,,E,]2 [A,,E,] [A,,E,]2 z4 | %11
w: for *||thee, He died for|
 z2 [A,,A,] [A,,A,]2 [A,,A,] [A,,A,]2 z4 | z2 [E,G,] [E,G,]2 [E,G,] [E,G,]2 [E,G,] G,F,[E,G,] | %13
w: thee, Up- on the|cross ~ ~ ~ ~ ~ He died|
 [A,,A,]2 [A,,A,] (A,,C,)[E,A,] A,2 z4 | %14
w: thee; O come * to Him,|
 z2 [A,C] [A,C]2 [A,C] [A,C]2 [A,,A,] [A,,A,][B,,G,][C,A,] | %15
w: ~ ~ O come to- day, Let Je-|
 [D,A,]2 [D,A,] [D,A,]2 [D,A,] [D,A,]2 z4 | %16
w: sus bear * * *|
 z2 [E,A,] [E,A,]2 [E,A,] [E,G,]2 [E,G,] [E,A,]2 [E,B,] | [A,,A,]8 |] %18
w: ||
V:4
 x4 | x9 | x6 D,2 x | x9 | x9 | x6 A,2 x | x9 | x6 E,2 x | x5 ||[M:12/8] x4 | x12 | x12 | %12
w: ||~|||~||died|||||
 x9 E,2 x | x3 A,2 A,2 x5 | x12 | x12 | x12 | x8 |] %18
w: for|~ ~|||||

